assets/icons/chat-icon.svg

<svg width="34" height="34" viewBox="0 0 34 34" fill="none" xmlns="http://www.w3.org/2000/svg">
<path d="M2.19248 15.125C1.16782 16.9658 0.672138 19.0541 0.76024 21.1591C0.848342 23.264 1.51679 25.3036 2.6917 27.0523C2.87217 27.325 2.97373 27.5359 2.94248 27.6773C2.91123 27.8187 2.01045 32.5109 2.01045 32.5109C1.98878 32.6207 1.997 32.7343 2.03424 32.8399C2.07149 32.9454 2.13639 33.039 2.22217 33.1109C2.33663 33.2021 2.47895 33.2512 2.62529 33.25C2.70349 33.2502 2.7809 33.2342 2.85264 33.2031L7.24404 31.4844C7.54628 31.3652 7.88344 31.3708 8.18154 31.5C9.66123 32.0765 11.2972 32.4375 12.9339 32.4375C15.1302 32.4398 17.2879 31.8605 19.1878 30.7586M30.672 22.0469C30.5939 21.7656 30.7658 21.375 30.9298 21.0938C30.98 21.01 31.0347 20.9292 31.0939 20.8516C32.4972 18.7663 33.2479 16.3104 33.2501 13.7969C33.2736 6.59375 27.1954 0.75 19.6798 0.75C13.1251 0.75 7.65638 5.21094 6.37513 11.1328C6.18346 12.0105 6.08655 12.9063 6.08607 13.8047C6.08607 21.0156 11.9298 27.0156 19.4454 27.0156C20.6408 27.0156 22.2501 26.6562 23.1329 26.4141C24.0158 26.1719 24.8908 25.8516 25.1173 25.7656C25.3496 25.6781 25.5957 25.6331 25.8439 25.6328C26.1147 25.6318 26.383 25.6849 26.6329 25.7891L31.0626 27.3594C31.1597 27.4005 31.2624 27.4268 31.3673 27.4375C31.5331 27.4375 31.6921 27.3717 31.8093 27.2544C31.9265 27.1372 31.9923 26.9783 31.9923 26.8125C31.9869 26.741 31.9738 26.6703 31.9533 26.6016L30.672 22.0469Z" stroke="white" stroke-miterlimit="10" stroke-linecap="round"/>
</svg>

<svg width="34" height="34" fill="none" xmlns="http://www.w3.org/2000/svg"><path d="M2.192 15.125a11.424 11.424 0 00.5 11.927c.18.273.282.484.25.625a2063.4 2063.4 0 00-.932 4.834.625.625 0 00.212.6c.115.091.257.14.403.139a.568.568 0 00.228-.047l4.391-1.719a1.23 1.23 0 01.938.016c1.48.577 3.115.938 4.752.938a12.44 12.44 0 006.254-1.68m11.484-8.711c-.078-.281.094-.672.258-.953.05-.084.105-.165.164-.242a12.656 12.656 0 002.156-7.055C33.274 6.594 27.195.75 19.68.75 13.125.75 7.656 5.21 6.375 11.133a12.555 12.555 0 00-.289 2.672c0 7.21 5.844 13.21 13.36 13.21 1.195 0 2.804-.359 3.687-.6a24.693 24.693 0 001.984-.65 2.068 2.068 0 011.516.024l4.43 1.57c.097.041.2.068.304.078a.625.625 0 00.625-.625 1.001 1.001 0 00-.039-.21l-1.281-4.555z" stroke="#fff" stroke-miterlimit="10" stroke-linecap="round"/></svg>
